X:7
T:Scan Tester- No.6
C:No.6 in Will Duke's workshop
Q:1/4=160
I:abc2nwc
M:4/4
L:1/8
K:G
dc|B2B2A2A2|GABG D2G2|FGAB cA F2|e2d2d2dc|
B2B2A2A2|GABG D2G2|FGAB cA F2|A2G2G2:|
|:ef|g2d2d2ef|g2d2d4|e2e2f3e|e2d2d2ef|
g2d2d2ef|g2d2d4|e2e2f3e|e2d2c2A2|
B2B2A2A2|GABG D2G2|FGAB cA F2|A2G2G2:|


